icons/production/pinterest.svg

<?xml version="1.0" encoding="UTF-8" standalone="no"?>
<svg width="24px" height="24px" viewBox="0 0 24 24" version="1.1" xmlns="http://www.w3.org/2000/svg">
<!--Generator: Sketch 3.8.3 (29802) - http://www.bohemiancoding.com/sketch-->
    <title>
        pinterest
    </title>
    <desc>
        Created with Sketch.
    </desc>
    <g id="Page-1" stroke="none" stroke-width="1" fill="none" fill-rule="evenodd">
        <path d="M12.000625,2 C6.47777986,2 2,6.47777986 2,12.000625 C2,16.2383899 4.6351647,19.8573661 8.35539721,21.3137071 C8.26789174,20.5224077 8.18913682,19.3085818 8.3903994,18.4447778 C8.57291081,17.663479 9.56297269,13.4732171 9.56297269,13.4732171 C9.56297269,13.4732171 9.26295393,12.8731796 9.26295393,11.9881243 C9.26295393,10.6005375 10.0705044,9.55922245 11.0730671,9.55922245 C11.9268704,9.55922245 12.3381461,10.2005125 12.3381461,10.9680605 C12.3381461,11.8268642 11.7931121,13.1094443 11.5105944,14.2982686 C11.2730796,15.2945809 12.0106257,16.1046315 12.991937,16.1046315 C14.7670479,16.1046315 16.1346334,14.2320145 16.1346334,11.5268454 C16.1346334,9.13294581 14.4145259,7.45909119 11.9568723,7.45909119 C9.11169448,7.45909119 7.44409026,9.59297456 7.44409026,11.7993625 C7.44409026,12.6581661 7.7728608,13.5794737 8.18538659,14.080755 C8.26789174,14.1807613 8.27914245,14.2682668 8.25664104,14.368273 C8.18163635,14.6832927 8.01162573,15.3633352 7.97787362,15.5020939 C7.93412088,15.6846053 7.83411463,15.7246078 7.64285268,15.6358522 C6.3952747,15.0545659 5.6127258,13.2282018 5.6127258,11.76061 C5.6127258,8.60541284 7.90536909,5.71023189 12.2218889,5.71023189 C15.6896056,5.71023189 18.3872742,8.18163635 18.3872742,11.4855928 C18.3872742,14.9320583 16.2121383,17.7072317 13.1956997,17.7072317 C12.1831364,17.7072317 11.2305769,17.1796987 10.9043065,16.5571598 L10.2792675,18.9348084 C10.0542534,19.8036127 9.44546534,20.8924308 9.03668979,21.5562223 C9.97424839,21.8462404 10.9680605,22.0025002 11.999375,22.0025002 C17.5209701,22.0025002 22,17.5247203 22,12.0018751 C22,6.47902994 17.5209701,2.00125008 11.999375,2.00125008 L12.000625,2 Z" id="pinterest" fill="#000"/>
    </g>
</svg>

<svg xmlns="http://www.w3.org/2000/svg" viewBox="0 0 24 24">
    <path fill-rule="evenodd" d="M12 2C6.479 2 2 6.478 2 12a10 10 0 0 0 6.355 9.314c-.087-.792-.166-2.005.035-2.87.183-.78 1.173-4.97 1.173-4.97s-.3-.6-.3-1.486c0-1.387.808-2.429 1.81-2.429.854 0 1.265.642 1.265 1.41 0 .858-.545 2.14-.827 3.33-.238.996.5 1.806 1.48 1.806 1.776 0 3.144-1.873 3.144-4.578 0-2.394-1.72-4.068-4.178-4.068-2.845 0-4.513 2.134-4.513 4.34 0 .86.329 1.78.741 2.282.083.1.094.187.072.287-.075.315-.245.995-.28 1.134-.043.183-.143.223-.334.134-1.248-.581-2.03-2.408-2.03-3.875 0-3.156 2.292-6.05 6.609-6.05 3.468 0 6.165 2.47 6.165 5.775 0 3.446-2.175 6.221-5.191 6.221-1.013 0-1.965-.527-2.292-1.15l-.625 2.378c-.225.869-.834 1.957-1.242 2.621a10 10 0 0 0 2.962.447C17.521 22.003 22 17.525 22 12.002s-4.479-10-10-10V2z"/>
</svg>
